assets/svg/point-gift.svg

<?xml version="1.0" encoding="UTF-8"?>
<svg width="1000px" height="1000px" viewBox="0 0 1000 1000" version="1.1" xmlns="http://www.w3.org/2000/svg" xmlns:xlink="http://www.w3.org/1999/xlink">
    <!-- Generator: sketchtool 52.4 (67378) - http://www.bohemiancoding.com/sketch -->
    <title>point-gift</title>
    <desc>Created with sketchtool.</desc>
    <g id="新版图标" stroke="none" stroke-width="1" fill="none" fill-rule="evenodd">
        <g id="point-gift" fill="#323233" fill-rule="nonzero">
            <g id="圆角-赠品-面">
                <path d="M542.65372,271.615961 C548.160246,277.122488 585.854455,267.698935 621.22114,232.332251 C656.587824,196.965566 666.011377,159.271357 660.50485,153.764831 C654.998323,148.258304 617.304114,157.681856 581.93743,193.048541 C546.570745,228.415225 537.147193,266.109434 542.65372,271.615961 Z M472.222222,500 L472.222222,888.888889 L167.666667,888.888889 C167.114382,888.888889 166.666667,888.441174 166.666667,887.888889 L166.666667,500 L472.222222,500 Z M527.777778,500 L833.333333,500 L833.333333,887.888889 C833.333333,888.441174 832.885618,888.888889 832.333333,888.888889 L527.777778,888.888889 L527.777778,500 Z M527.777778,444.444444 L527.777778,277.777778 L472.222222,277.777778 L472.222222,444.444444 L112.111111,444.444444 C111.558826,444.444444 111.111111,443.996729 111.111111,443.444444 L111.111111,278.777778 C111.111111,278.225493 111.558826,277.777778 112.111111,277.777778 L354.60818,277.777778 C352.452952,275.779815 350.318926,273.725612 348.209275,271.615961 C293.96979,217.376476 276.381874,147.024812 308.925565,114.481121 C341.469256,81.9374297 411.82092,99.5253458 466.060405,153.764831 C482.181918,169.886343 495.065459,187.431282 504.357062,204.983781 C513.648664,187.431284 526.532206,169.886345 542.65372,153.764831 C596.893205,99.5253458 667.244869,81.9374297 699.78856,114.481121 C732.332251,147.024812 714.744335,217.376476 660.50485,271.615961 C658.395199,273.725612 656.261173,275.779815 654.105945,277.777778 L887.888889,277.777778 C888.441174,277.777778 888.888889,278.225493 888.888889,278.777778 L888.888889,443.444444 C888.888889,443.996729 888.441174,444.444444 887.888889,444.444444 L527.777778,444.444444 Z M466.060405,271.615961 C471.566932,266.109434 462.14338,228.415225 426.776695,193.048541 C391.410011,157.681856 353.715802,148.258304 348.209275,153.764831 C342.702748,159.271357 352.126301,196.965566 387.492985,232.332251 C422.85967,267.698935 460.553879,277.122488 466.060405,271.615961 Z" id="Combined-Shape"></path>
            </g>
        </g>
    </g>
</svg>

<svg width="1000" height="1000" xmlns="http://www.w3.org/2000/svg"><path d="M542.654 271.616c5.506 5.506 43.2-3.917 78.567-39.284 35.367-35.366 44.79-73.06 39.284-78.567-5.507-5.507-43.2 3.917-78.568 39.284-35.366 35.366-44.79 73.06-39.283 78.567zM472.222 500v388.889H167.667a1 1 0 0 1-1-1V500h305.555zm55.556 0h305.555v387.889a1 1 0 0 1-1 1H527.778V500zm0-55.556V277.778h-55.556v166.666h-360.11a1 1 0 0 1-1-1V278.778a1 1 0 0 1 1-1h242.496a234.743 234.743 0 0 1-6.399-6.162c-54.24-54.24-71.827-124.591-39.283-157.135 32.543-32.544 102.895-14.956 157.134 39.284 16.122 16.121 29.005 33.666 38.297 51.219 9.292-17.553 22.175-35.098 38.297-51.22 54.24-54.239 124.59-71.827 157.135-39.283 32.543 32.544 14.955 102.895-39.284 157.135a234.743 234.743 0 0 1-6.4 6.162H887.89a1 1 0 0 1 1 1v164.666a1 1 0 0 1-1 1H527.778zM466.06 271.616c5.507-5.507-3.917-43.2-39.283-78.567-35.367-35.367-73.061-44.79-78.568-39.284-5.506 5.506 3.917 43.2 39.284 78.567 35.367 35.367 73.06 44.79 78.567 39.284z" fill="#323233" fill-rule="nonzero"/></svg>
